public/images/homePage/footer/cart.svg

<svg width="29" height="38" viewBox="0 0 29 38" fill="none" xmlns="http://www.w3.org/2000/svg">
<path d="M11.4272 31.1811H10.0991C10.0612 30.9633 9.9914 30.7704 9.8896 30.6023C9.7878 30.4318 9.66114 30.2874 9.50962 30.169C9.35811 30.0507 9.18529 29.9619 8.99116 29.9027C8.7994 29.8411 8.59225 29.8104 8.36971 29.8104C7.97435 29.8104 7.62397 29.9098 7.31857 30.1087C7.01318 30.3052 6.77407 30.594 6.60124 30.9751C6.42842 31.3539 6.34201 31.8168 6.34201 32.3636C6.34201 32.92 6.42842 33.3887 6.60124 33.7699C6.77643 34.1487 7.01554 34.4351 7.31857 34.6293C7.62397 34.821 7.97317 34.9169 8.36616 34.9169C8.58396 34.9169 8.78756 34.8885 8.97695 34.8317C9.16871 34.7725 9.34035 34.6861 9.49187 34.5724C9.64575 34.4588 9.77478 34.3191 9.87894 34.1534C9.98548 33.9877 10.0589 33.7983 10.0991 33.5852L11.4272 33.5923C11.3775 33.938 11.2698 34.2623 11.1041 34.5653C10.9407 34.8684 10.7265 35.1359 10.4613 35.3679C10.1962 35.5975 9.88604 35.7775 9.53093 35.9077C9.17582 36.0355 8.78164 36.0994 8.3484 36.0994C7.7092 36.0994 7.13865 35.9515 6.63675 35.6555C6.13486 35.3596 5.7395 34.9323 5.45068 34.3736C5.16185 33.8149 5.01744 33.1449 5.01744 32.3636C5.01744 31.58 5.16303 30.91 5.45423 30.3537C5.74542 29.795 6.14196 29.3677 6.64386 29.0717C7.14575 28.7758 7.71393 28.6278 8.3484 28.6278C8.75323 28.6278 9.12965 28.6847 9.47766 28.7983C9.82568 28.9119 10.1358 29.0788 10.4081 29.299C10.6803 29.5168 10.904 29.7843 11.0792 30.1016C11.2568 30.4164 11.3728 30.7763 11.4272 31.1811ZM13.7465 36.1101C13.4009 36.1101 13.0896 36.0485 12.8126 35.9254C12.538 35.8 12.3201 35.6153 12.1592 35.3714C12.0005 35.1276 11.9212 34.8269 11.9212 34.4695C11.9212 34.1617 11.9781 33.9072 12.0917 33.706C12.2053 33.5047 12.3604 33.3438 12.5569 33.223C12.7534 33.1023 12.9747 33.0111 13.221 32.9496C13.4695 32.8857 13.7264 32.8395 13.9915 32.8111C14.3112 32.7779 14.5704 32.7483 14.7692 32.7223C14.9681 32.6939 15.1125 32.6513 15.2025 32.5945C15.2948 32.5353 15.341 32.4441 15.341 32.321V32.2997C15.341 32.0322 15.2617 31.825 15.1031 31.6783C14.9444 31.5315 14.716 31.4581 14.4177 31.4581C14.1028 31.4581 13.8531 31.5268 13.6684 31.6641C13.4861 31.8014 13.363 31.9635 13.2991 32.1506L12.0988 31.9801C12.1935 31.6487 12.3497 31.3717 12.5675 31.1491C12.7853 30.9242 13.0517 30.7562 13.3665 30.6449C13.6814 30.5312 14.0294 30.4744 14.4106 30.4744C14.6734 30.4744 14.935 30.5052 15.1954 30.5668C15.4558 30.6283 15.6937 30.7301 15.9092 30.8722C16.1246 31.0118 16.2974 31.2024 16.4276 31.4439C16.5602 31.6854 16.6265 31.9872 16.6265 32.3494V36H15.3907V35.2507H15.3481C15.27 35.4022 15.1599 35.5443 15.0178 35.6768C14.8781 35.8071 14.7018 35.9124 14.4887 35.9929C14.278 36.071 14.0306 36.1101 13.7465 36.1101ZM14.0803 35.1655C14.3384 35.1655 14.5621 35.1146 14.7515 35.0128C14.9409 34.9086 15.0865 34.7713 15.1883 34.6009C15.2924 34.4304 15.3445 34.2446 15.3445 34.0433V33.4006C15.3043 33.4337 15.2356 33.4645 15.1386 33.4929C15.0439 33.5213 14.9373 33.5462 14.819 33.5675C14.7006 33.5888 14.5834 33.6077 14.4674 33.6243C14.3514 33.6409 14.2508 33.6551 14.1656 33.6669C13.9738 33.6929 13.8022 33.7356 13.6506 33.7947C13.4991 33.8539 13.3796 33.9368 13.292 34.0433C13.2044 34.1475 13.1606 34.2824 13.1606 34.4482C13.1606 34.6849 13.247 34.8636 13.4198 34.9844C13.5926 35.1051 13.8128 35.1655 14.0803 35.1655ZM17.5191 36V30.5455H18.7656V31.4545H18.8224C18.9218 31.1397 19.0923 30.897 19.3337 30.7266C19.5776 30.5537 19.8558 30.4673 20.1683 30.4673C20.2393 30.4673 20.3186 30.4709 20.4062 30.478C20.4961 30.4827 20.5707 30.491 20.6299 30.5028V31.6854C20.5754 31.6664 20.489 31.6499 20.3707 31.6357C20.2547 31.6191 20.1422 31.6108 20.0333 31.6108C19.7989 31.6108 19.5882 31.6617 19.4012 31.7635C19.2165 31.8629 19.071 32.0014 18.9644 32.179C18.8579 32.3565 18.8046 32.5613 18.8046 32.7933V36H17.5191ZM24.1006 30.5455V31.5398H20.965V30.5455H24.1006ZM21.7391 29.2386H23.0246V34.3594C23.0246 34.5322 23.0507 34.6648 23.1028 34.7571C23.1572 34.8471 23.2282 34.9086 23.3158 34.9418C23.4034 34.9749 23.5005 34.9915 23.607 34.9915C23.6875 34.9915 23.7609 34.9856 23.8272 34.9737C23.8959 34.9619 23.9479 34.9512 23.9835 34.9418L24.2001 35.9467C24.1314 35.9704 24.0332 35.9964 23.9053 36.0249C23.7799 36.0533 23.626 36.0698 23.4437 36.0746C23.1217 36.084 22.8317 36.0355 22.5737 35.929C22.3156 35.8201 22.1108 35.652 21.9593 35.4247C21.8102 35.1974 21.7368 34.9134 21.7391 34.5724V29.2386Z" fill="#152536"/>
<path d="M14 1.5C14.9946 1.5 15.9484 1.89509 16.6517 2.59835C17.3549 3.30161 17.75 4.25544 17.75 5.25V6H10.25V5.25C10.25 4.25544 10.6451 3.30161 11.3483 2.59835C12.0516 1.89509 13.0054 1.5 14 1.5ZM19.25 6V5.25C19.25 3.85761 18.6969 2.52226 17.7123 1.53769C16.7277 0.553123 15.3924 0 14 0C12.6076 0 11.2723 0.553123 10.2877 1.53769C9.30312 2.52226 8.75 3.85761 8.75 5.25V6H3.5V21C3.5 21.7956 3.81607 22.5587 4.37868 23.1213C4.94129 23.6839 5.70435 24 6.5 24H21.5C22.2956 24 23.0587 23.6839 23.6213 23.1213C24.1839 22.5587 24.5 21.7956 24.5 21V6H19.25ZM5 7.5H23V21C23 21.3978 22.842 21.7794 22.5607 22.0607C22.2794 22.342 21.8978 22.5 21.5 22.5H6.5C6.10218 22.5 5.72064 22.342 5.43934 22.0607C5.15804 21.7794 5 21.3978 5 21V7.5Z" fill="#212529"/>
</svg>

<svg version="1.2" xmlns="http://www.w3.org/2000/svg" viewBox="0 0 29 38" width="29" height="38"><defs><image  width="20" height="17" id="img1" href="data:image/png;base64,iVBORw0KGgoAAAANSUhEUgAAABQAAAARBAMAAAAvapGNAAAAAXNSR0IB2cksfwAAAA9QTFRFAAAAAAAAAAAAAAAAAAAATw7njQAAAAV0Uk5T/7v1ANmOfNPtAAAAGUlEQVR4nGNkgAPGwcsUegdlKTKanIEynQEmYwJ25n3+3wAAAABJRU5ErkJggg=="/></defs><style>.a{fill:#152536}.b{fill:#212529}</style><path class="a" d="m11.4 31.2h-1.3q-0.1-0.3-0.2-0.6-0.2-0.3-0.4-0.4-0.2-0.2-0.5-0.3-0.3-0.1-0.6-0.1-0.6 0-1.1 0.3-0.4 0.3-0.7 0.9-0.3 0.5-0.3 1.4 0 0.8 0.3 1.4 0.3 0.5 0.7 0.8 0.5 0.3 1.1 0.3 0.3 0 0.6-0.1 0.3-0.1 0.5-0.2 0.2-0.2 0.4-0.4 0.1-0.3 0.2-0.6h1.3q0 0.5-0.3 1-0.2 0.4-0.6 0.8-0.4 0.3-1 0.5-0.5 0.2-1.2 0.2-0.9 0-1.7-0.4-0.7-0.5-1.1-1.3-0.5-0.9-0.5-2 0-1.2 0.5-2 0.4-0.9 1.1-1.3 0.8-0.5 1.7-0.5 0.7 0 1.2 0.2 0.5 0.2 0.9 0.5 0.4 0.3 0.7 0.8 0.2 0.5 0.3 1.1zm2.3 4.9q-0.5 0-0.9-0.2-0.4-0.2-0.6-0.5-0.3-0.4-0.3-0.9 0-0.5 0.2-0.8 0.2-0.3 0.5-0.5 0.3-0.2 0.6-0.3 0.4 0 0.8-0.1 0.5 0 0.8-0.1 0.3 0 0.4-0.1 0.1-0.1 0.1-0.3 0-0.4-0.2-0.6-0.2-0.2-0.7-0.2-0.5 0-0.7 0.2-0.3 0.2-0.4 0.5l-1.2-0.2q0.1-0.5 0.5-0.9 0.3-0.3 0.8-0.5 0.4-0.1 1-0.1 0.4 0 0.8 0.1 0.4 0.1 0.7 0.3 0.3 0.2 0.5 0.5 0.2 0.4 0.2 0.9v3.7h-1.2v-0.7h-0.1q-0.1 0.2-0.3 0.4-0.2 0.2-0.5 0.3-0.3 0.1-0.8 0.1zm0.4-0.9q0.4 0 0.7-0.2 0.2-0.1 0.4-0.4 0.1-0.3 0.1-0.6v-0.6q0 0.1-0.2 0.1-0.1 0-0.3 0.1-0.2 0-0.3 0-0.2 0-0.3 0.1-0.3 0-0.5 0.1-0.3 0.1-0.4 0.2-0.1 0.2-0.1 0.4 0 0.4 0.2 0.6 0.3 0.2 0.7 0.2zm3.4 0.8v-5.5h1.3v1q0.2-0.5 0.5-0.8 0.4-0.2 0.9-0.2 0.1 0 0.2 0 0.1 0 0.2 0v1.2q-0.1 0-0.2-0.1-0.2 0-0.4 0-0.3 0-0.6 0.2-0.3 0.1-0.4 0.4-0.2 0.2-0.2 0.6v3.2zm6.6-5.5v1h-3.1v-1zm-2.4-1.3h1.3v5.2q0 0.2 0.1 0.4 0 0.1 0.2 0.1 0.1 0.1 0.3 0.1 0.1 0 0.2 0 0.1 0 0.1-0.1l0.2 1q-0.1 0.1-0.2 0.1-0.2 0.1-0.5 0.1-0.5 0-0.9-0.2-0.4-0.1-0.6-0.5-0.2-0.3-0.2-0.8z"/><use  href="#img1" x="4" y="6"/><path class="b" d="m19.3 6l-0.1-0.8c0-1.3-0.5-2.7-1.5-3.7-1-0.9-2.3-1.5-3.7-1.5-1.4 0-2.7 0.6-3.7 1.5-1 1-1.6 2.4-1.6 3.8v0.7h-5.2v15c0 0.8 0.3 1.6 0.9 2.1 0.5 0.6 1.3 0.9 2.1 0.9h15c0.8 0 1.6-0.3 2.1-0.9 0.6-0.5 0.9-1.3 0.9-2.1v-15zm-5.3-4.5c1 0 2 0.4 2.7 1.1 0.7 0.7 1.1 1.7 1.1 2.7v0.7h-7.5v-0.7c0-1 0.4-2 1.1-2.7 0.7-0.7 1.7-1.1 2.6-1.1zm-9 6h18.1l-0.1 13.5c0 0.4-0.1 0.8-0.4 1.1-0.3 0.2-0.7 0.4-1.1 0.4h-15c-0.3 0-0.7-0.2-1-0.4-0.3-0.3-0.5-0.7-0.5-1.1z"/></svg>
